!!!OTL: HILF O HIMMEL ICH MUSS SCHEIDEN
!!!ARE: Europa, Mitteleuropa, Deutschland, Hessen, Darmstadt, Jugenheim
!!!SCT: E0792
!!!YEM: Copyright 1995, estate of Helmut Schaffrath.
**kern
*ICvox
*Ivox
*M3/4
*k[b-]
*F:
{8a
8g
=1
4f
4f
8g
8b-
=2
4a
4cc}
{8a
8cc
=3
4b-
4dd
8cc
8a
=4
2g}
{8a
8g
=5
4f
4f
8g
8b-
=6
4a
4cc}
{8b-
8dd
=7
4cc
4a
8g
8a
=8
2f}
==
!!!AGN: Abschieds - Lied, Liebe
!!!ONB: ESAC (Essen Associative Code) Database: ERK2
!!!AMT: simple triple
!!!AIN: vox
!!!EED: Helmut Schaffrath
!!!EEV: 1.0
*-
